X:1
T:Title
%%score { 1 | 2 }
L:1/8
Q:1/4=84
M:6/8
K:C
V:1 treble nm="Grand Piano"
V:2 bass 
V:1
 [G,EG][G,EG][G,EG] [G,EG][G,EG][G,EG] | [CFA][CFA][Ac] [Ac]3 |[M:13/16] [Ge]3/2[Fd][Ec]ded | %3
w: R.~E.~Hudson * * * * *|||
[M:3/4] [Ec]4 z2 | GG GG GG | Ac c c3 | cc cd cA | AG G G3 | %8
w: |||||
 [G,EG][G,EG] [G,EG][G,EG] [G,EG][G,EG] | [CFA][CFA] [Ac] [Ac]3 |[M:13/16] [Ge]3/2[Fd][Ec]ded | %11
w: |||
[M:7/4] [Ec]4 z2 z2 z2 z4 |] %12
w: |
V:2
 C,C,C, C,C,C, | F,F,[F,A,] [F,A,]3 |[M:13/16] [C,C]3/2[C,G,][C,G,][K:treble][G,F][G,G][G,F] | %3
[M:3/4][K:bass] [C,G,]4 z2 | EE EE EE | FA A A3 | AA AF AF | FE E E3 | C,C, C,C, C,C, | %9
 F,F, [F,A,] [F,A,]3 |[M:13/16] [C,C]3/2[C,G,][C,G,][K:treble][G,F][G,G][G,F] | %11
[M:7/4][K:bass] [C,G,]4 z2 z2 z2 z4 |] %12

